svgs/thin/sign-hanging.svg

<svg xmlns="http://www.w3.org/2000/svg" viewBox="0 0 512 512"><!--! Font Awesome Pro 6.4.0 by @fontawesome - https://fontawesome.com License - https://fontawesome.com/license (Commercial License) Copyright 2023 Fonticons, Inc. --><path d="M72 0c4.4 0 8 3.6 8 8V64l424 0c4.4 0 8 3.6 8 8s-3.6 8-8 8L80 80V504c0 4.4-3.6 8-8 8s-8-3.6-8-8V80H8c-4.4 0-8-3.6-8-8s3.6-8 8-8l56 0V8c0-4.4 3.6-8 8-8zm88 144c-8.8 0-16 7.2-16 16V352c0 8.8 7.2 16 16 16H448c8.8 0 16-7.2 16-16V160c0-8.8-7.2-16-16-16H160zm-32 16c0-17.7 14.3-32 32-32H448c17.7 0 32 14.3 32 32V352c0 17.7-14.3 32-32 32H160c-17.7 0-32-14.3-32-32V160z"/></svg>

<svg xmlns="http://www.w3.org/2000/svg" viewBox="0 0 512 512"><!--! Font Awesome Pro 6.3.0 by @fontawesome - https://fontawesome.com License - https://fontawesome.com/license (Commercial License) Copyright 2023 Fonticons, Inc. --><path d="M72 0C76.42 0 80 3.582 80 8V64H504C508.4 64 512 67.58 512 72C512 76.42 508.4 80 504 80H80V504C80 508.4 76.42 512 72 512C67.58 512 64 508.4 64 504V80H8C3.582 80 0 76.42 0 72C0 67.58 3.582 64 8 64H64V8C64 3.582 67.58 0 72 0zM128 160C128 142.3 142.3 128 160 128H448C465.7 128 480 142.3 480 160V352C480 369.7 465.7 384 448 384H160C142.3 384 128 369.7 128 352V160zM144 160V352C144 360.8 151.2 368 160 368H448C456.8 368 464 360.8 464 352V160C464 151.2 456.8 144 448 144H160C151.2 144 144 151.2 144 160z"/></svg>
